X:1
T:Title
%%score [ 1 2 3 4 ]
L:1/8
Q:1/4=60
M:6/8
K:D
V:1 treble-8 nm="Tenor I"
V:2 treble-8 nm="Tenor II"
V:3 bass nm="Bass I"
V:4 bass nm="Bass II"
V:1
"^Langsam (slowly)"!p! d |!<(! f3-!<)!!>(! f2!>)! d | A6 |!pp! B>cB e2 c | %4
w: Wie|schön _ bist|du,|freund- li- che Stil- le,|
 d>!<(!Af!<)!!>(! !fermata!e3!>)! |!pp! e2 e e2 e | !>!f>e c/A/ c2 B | e2 e e2 e | %8
w: himm- li- sche Ruh'!|Se- het, sie die|kla- * ren _ Ster- ne|wan- deln in des|
 !>!f>e c/A/ c2 B | c2 e!<(! d2 A!<)! |!>(! g2 f/!>)!d/ f3 | e2 z z2 z |!pp! d3- d2 B | e3- e2 c | %14
w: Him- * mels * Au- en|und auf uns her-|nie- der _ schau-|en,|schwei- * gend,|schwei- * gend|
!mf! d2!<(! e!<)!!>(! fa!>)!d | (e2 f) d2 z |!pp! (d3 e>d)B | (e3 f>e)c | %18
w: aus der blau- * en|Fer- * ne,|schwei- * * gend,|schwei- * * gend|
!mf! d2!<(! e!<)!!>(! f!>)!ad | (e2 f) !fermata!d2!p! d |!<(! f3-!<)!!>(! f2!>)! d | A6 | %22
w: aus der blau- * en|Fer- * ne. Wie|schön _ bist|du,|
!pp! B>cB e2 c | d>!<(!A!<)!f!>(! !fermata!e3!>)! |!pp! e2 e e2 e | !>!f>e c/A/ c2 B | e2 e e2 e | %27
w: freund- li- che Stil- le,|himm- li- sche Ruh'!|Schwei- gend naht des|Len- * zes _ Mil- de|sich der Er- de|
 !>!f>e c/A/ (c2 B) | c2 e!<(! d2 A!<)! |!>(! g2!>)! f/d/ (f3 | e2) z z2 z |!pp! d2 d d2 B | %32
w: wei- * chem _ Schoss, _|kränzt den Sil- ber-|­quell mit * Moos|_|und mit Blu- men|
 e2 e e2 c |!mf! d2 e!>(! f!>)!aA/d/ | (e2 f) d2 z |!pp! d2 d e>dB | e2 e!>(! f>!>)!ec | %37
w: die Ge- fil- de,|und mit Blu- men die Ge-|­fil- * de,|und mit Blu- * men|die Ge- fil- * de,|
!mf! d2!<(! e!<)!!>(! f!>)!!fermata!aA/d/ | (e2 f) !fermata!d3 |] %39
w: und mit Blu- men die Ge-|fil- * de.|
V:2
!p! A |!<(! d3-!<)!!>(! d2!>)! A | F6 |!pp! G>GG _B2 B | A>!<(!A!<)!d!>(! !fermata!c3!>)! | %5
w: Wie|schön _ bist|du,|freund- li- che Stil- le,|himm- li- sche Ruh'!|
!pp! d2 c d2 B | !>!c2 A A2 ^G | d2 c d2 B | !>!c2 A A2 ^G | =G2 c!<(! d2 d!<)! | %10
w: Se- het, sie die|kla- ren Ster- ne|wan- deln in des|Him- mels Au- en|und auf uns her-|
!>(! c2 d!>)! (d2 B) | c2 z z2 z |!pp! (A2 ^A) B2 z | (B2 ^B) c2 z | %14
w: nie- der schau- *|en,|schwei- * gend|schwei- * gend|
!mf! A2!<(! c!<)!!>(! d2!>)! A | c3 d2 z |!pp! (A2 =c) B2 z | (B2 d) ^c2 z | %18
w: aus der blau- en|Fer- ne,|schwei- * gend,|schwei- * gend|
!mf! A2!<(! c!<)!!>(! d2!>)! A | c3 !fermata!d2!p! A |!<(! d3-!<)!!>(! d2!>)! A | F6 | %22
w: aus der blau- en|Fer- ne. Wie|schön _ bist|du,|
!pp! G>GG _B2 B | A>!<(!A!<)!d!>(! !fermata!c3!>)! |!pp! d2 c d2 B | !>!c2 A A2 ^G | d2 c d2 B | %27
w: freund- li- che Stil- le,|himm- li- sche Ruh'!|Schwei- gend naht des|Len- zes Mil- de|sich der Er- de|
 !>!c2 A (A2 ^G) | =G2 c!<(! d2 d!<)! |!>(! c2 d!>)! (d2 B | c2) z z2 z |!pp! A2 ^A B2 B | %32
w: wei- chem Schoss, _|kränzt den Sil- ber-|­quell mit Moos _|_|und mit Blu- men|
 B2 ^B c2 c |!mf! =A2 c!>(! d!>)!dA/A/ | c3 d2 z |!pp! A2 =c B2 B | B2 d!>(! ^c2!>)! c | %37
w: die Ge- fil- de,|und mit Blu- men die Ge-|­fil- de,|und mit Blu- men|die Ge- fil- de,|
!mf! A2!<(! c!<)!!>(! d!>)!!fermata!dA/A/ | c3 !fermata!A3 |] %39
w: und mit Blu- men die Ge-|fil- de.|
V:3
!p! F, |!<(! A,3-!<)!!>(! A,2!>)! F, | D,6 |!pp! D,>D,D, G,2 G, | %4
w: Wie|schön _ bist|du,|freund- li- che Stil- le,|
 F,>!<(!F,A,!<)!!>(! !fermata!A,3!>)! |!pp! B,2 ^A, B,2 ^G, | !>!=A,2 E, E,2 E, | B,2 ^A, B,2 ^G, | %8
w: himm- li- sche Ruh'!|Se- het, sie die|kla- ren Ster- ne|wan- deln in des|
 !>!=A,2 E, E,2 E, | E,2 =G,!<(! F,2 F,!<)! |!>(! E,2 D,/!>)!F,/ A,2 ^G, | A,2 z z2 z | %12
w: Him- mels Au- en|und auf uns her-|nie- der _ schau- *|en,|
!pp! F,3 =G,2 z | ^G,3 A,2 z |!mf! F,2!<(! A,!<)!!>(! D2!>)! F, | (=G,2 A,) F,2 z | %16
w: schwei- gend|schwei- gend|aus der blau- en|Fer- * ne,|
!pp! (F,2 A,) G,2 z | (^G,2 B,) A,2 z |!mf! F,2!<(! A,!<)!!>(! D2!>)! F, | %19
w: schwei- * gend,|schwei- * gend|aus der blau- en|
 (=G,2 A,) !fermata!F,2!p! F, |!<(! A,3-!<)!!>(! A,2!>)! F, | D,6 |!pp! D,>D,D, G,2 G, | %23
w: Fer- * ne. Wie|schön _ bist|du,|freund- li- che Stil- le,|
 F,>!<(!F,!<)!A,!>)!!>(! !fermata!A,3 |!pp! B,2 ^A, B,2 ^G, | !>!=A,2 E, E,2 E, | B,2 ^A, B,2 ^G, | %27
w: himm- li- sche Ruh'!|Schwei- gend naht des|Len- zes Mil- de|sich der Er- de|
 !>!=A,2 E, (E,2 E,) | E,2 =G,!<(! F,2 F,!<)! |!>(! E,2 D,/!>)!F,/ (A,2 ^G, | A,2) z z2 z | %31
w: wei- chem Schoss, _|kränzt den Sil- ber-|­quell mit * Moos _|_|
!pp! F,2 F, =G,2 G, | ^G,2 G, A,2 A, |!mf! F,2 A,!>(! D!>)!F,F,/D,/ | (=G,2 A,) F,2 z | %35
w: und mit Blu- men|die Ge- fil- de,|und mit Blu- men die Ge-|­fil- * de,|
!pp! F,2 A, G,2 G, | ^G,2 B,!>(! A,2!>)! A, |!mf! F,2!<(! A,!<)!!>(! D!>)!!fermata!F,F,/F,/ | %38
w: und mit Blu- men|die Ge- fil- de,|und mit Blu- men die Ge-|
 (=G,2 A,) !fermata!F,3 |] %39
w: fil- * de.|
V:4
!p! D, |!<(! D,3-!<)!!>(! D,2!>)! D, | D,6 |!pp! D,>D,D, D,2 D, | %4
w: Wie|schön _ bist|du,|freund- li- che Stil- le,|
 D,>!<(!D,!<)!D,!>(! !fermata!A,,3!>)! |!pp! E,2 E, E,2 E, | !>!E,2 A,,/C,/ E,2 E, | %7
w: himm- li- sche Ruh'!|Se- het, sie die|kla- ren _ Ster- ne|
 E,2 E, E,2 E, | !>!E,2 A,,/C,/ E,2 E, | A,,2 A,,!<(! A,,2 A,,!<)! |!>(! A,,2 A,,!>)! A,,3 | %11
w: wan- deln in des|Him- mels * Au- en|und auf uns her-|nie- der schau-|
 A,,2 z z2 z |!pp! D,3 =G,2 z | E,3 A,2 z | z2 z z F,A, | A,,3 D,2 z |!pp! D,3 G,2 z | E,3 A,2 z | %18
w: en,|schwei- gend|schwei- gend|aus der|Fer- ne,|schwei- gend,|schwei- gend|
 z2 z z F,A, | A,,3 !fermata!D,2!p! D, |!<(! D,3-!<)!!>(! D,2!>)! D, | D,6 |!pp! D,>D,D, D,2 D, | %23
w: aus der|Fer- ne. Wie|schön _ bist|du,|freund- li- che Stil- le,|
 D,>!<(!D,!<)!D,!>(! !fermata!A,,3!>)! |!pp! E,2 E, E,2 E, | !>!E,2 A,,/C,/ E,2 E, | %26
w: himm- li- sche Ruh'!|Schwei- gend naht des|Len- zes _ Mil- de|
 E,2 E, E,2 E, | !>!E,2 A,,/C,/ E,3 | A,,2 A,,!<(! A,,2 A,,!<)! |!>(! A,,2 A,,!>)! A,,3- | %30
w: sich der Er- de|wei- chem _ Schoss,|kränzt den Sil- ber-|­quell mit Moos|
 A,,2 z z2 z |!pp! D,2 D, G,2 G, | E,2 E, A,2 A, | z2 z z2 F,/D,/ | A,,3 D,2 z | %35
w: _|und mit Blu- men|die Ge- fil- de,|die Ge-|­fil- de,|
!pp! D,2 D, G,2 G, | E,2 E,!>(! A,2!>)! A, | z2 z z !fermata!z F,/D,/ | A,,3 !fermata!D,3 |] %39
w: und mit Blu- men|die Ge- fil- de,|die Ge-|fil- de.|

